X: 39963
T: Three Around Three
R: barndance
M: 4/4
K: Fmajor
|:c2 AG F2 F2|G2 AG F2 C2|DCDE F2 GA|B2 A2 A2 G2|
c2 AG F2 F2|G2 AG F2 C2|DCDE F2 GA|1 G2 F2 F2 A2:|2 G2 F2 F2 z2||
|:c2 de fedc|d2 d2 d2 ed|c2 A2 A2 GF|[EG]FGA G4|
c2 de fedc|d2 d2 d2 c2|de f2 d2 ge|1 f4 c2 d2:|2 f4 f2 d2||

